icons/toothbrush-toothpaste.svg

<?xml version="1.0" encoding="UTF-8"?><svg xmlns="http://www.w3.org/2000/svg" viewBox="0 0 50 50"><g id="uuid-1d66bb2a-30c7-472d-bbb3-dfb82454bf68"><g><path d="M34.09,30c.28,0,.5-.22,.5-.5v-5.82h-1v5.82c0,.28,.22,.5,.5,.5Z" fill="none"/><path d="M39.29,30c.28,0,.5-.22,.5-.5v-5.83h-1v5.83c0,.28,.22,.5,.5,.5Z" fill="none"/><path d="M28.9,30c.28,0,.5-.22,.5-.5v-5.82h-1v5.82c0,.28,.22,.5,.5,.5Z" fill="none"/><path d="M48.84,16.24c0-3.58-2.79-6.61-6.36-6.9-.25-.02-.49,.16-.53,.42-.04,.26,.12,.5,.37,.57,.97,.24,1.64,1.11,1.64,2.1,0,1.2-.98,2.17-2.17,2.17H25.68c-2.36,0-4.29,1.92-4.29,4.29,0,1.47,.75,2.78,1.88,3.55-.04,.07-.07,.15-.07,.24v10.01h-.89c-.28,0-.5,.22-.5,.5v1.21H1.16c-.28,0-.5,.22-.5,.5v4.76c0,.28,.22,.5,.5,.5H45.87c.28,0,.5-.22,.5-.5v-6.47c0-.28-.22-.5-.5-.5h-.89v-10.01c0-.07-.02-.14-.05-.21,2.31-1.13,3.91-3.49,3.91-6.23Zm-27.02,22.92H1.66v-3.76H21.82v3.76Zm23.55-5.47v5.47H22.82v-5.47h22.55Zm-16.47-3.69c.28,0,.5-.22,.5-.5v-6.32h4.19v6.32c0,.28,.22,.5,.5,.5s.5-.22,.5-.5v-6.32h4.19v6.32c0,.28,.22,.5,.5,.5s.5-.22,.5-.5v-6.32h4.19v9.51H24.21v-9.51h4.19v6.32c0,.28,.22,.5,.5,.5Zm12.96-7.83H25.68c-1.81,0-3.29-1.47-3.29-3.29s1.48-3.29,3.29-3.29h16.1c1.75,0,3.17-1.42,3.17-3.17,0-.52-.13-1.02-.35-1.45,1.92,.99,3.23,3,3.23,5.27,0,3.27-2.66,5.93-5.98,5.93Z"/></g></g><g id="uuid-de177499-1dcb-4826-af00-71ab467e19ac"><text transform="translate(.08 54.84)" font-family="Roboto-Regular, Roboto" font-size="6"><tspan x="0" y="0" letter-spacing="0em">t</tspan><tspan x="1.9" y="0">oothbrush-</tspan><tspan x="30.77" y="0" letter-spacing="0em">t</tspan><tspan x="32.67" y="0">oothpaste</tspan></text></g></svg>

<svg xmlns="http://www.w3.org/2000/svg" viewBox="0 0 50 50"><defs><style>.cls-1{fill:none;}.cls-2{font-size:6px;font-family:Roboto-Regular, Roboto;}.cls-3{letter-spacing:-0.01em;}</style></defs><g id="ICONS"><path class="cls-1" d="M34.09,30a.5.5,0,0,0,.5-.5V23.68h-1V29.5A.5.5,0,0,0,34.09,30Z"/><path class="cls-1" d="M39.29,30a.5.5,0,0,0,.5-.5V23.67h-1V29.5A.5.5,0,0,0,39.29,30Z"/><path class="cls-1" d="M28.9,30a.5.5,0,0,0,.5-.5V23.68h-1V29.5A.5.5,0,0,0,28.9,30Z"/><path d="M48.84,16.24a7,7,0,0,0-6.36-6.9.52.52,0,0,0-.54.42.5.5,0,0,0,.37.56,2.17,2.17,0,0,1-.53,4.28H25.68a4.29,4.29,0,0,0-2.4,7.84.48.48,0,0,0-.07.24v10h-.89a.5.5,0,0,0-.5.5V34.4H1.16a.5.5,0,0,0-.5.5v4.76a.5.5,0,0,0,.5.5H45.87a.5.5,0,0,0,.5-.5V33.19a.5.5,0,0,0-.5-.5H45v-10a.46.46,0,0,0,0-.21A6.94,6.94,0,0,0,48.84,16.24Zm-27,22.92H1.66V35.4H21.82Zm23.55-5.47v5.47H22.82V33.69H45.37ZM28.9,30a.5.5,0,0,0,.5-.5V23.18h4.19V29.5a.5.5,0,0,0,.5.5.5.5,0,0,0,.5-.5V23.18h4.2V29.5a.5.5,0,0,0,.5.5.5.5,0,0,0,.5-.5V23.18H44v9.51H24.21V23.18H28.4V29.5A.5.5,0,0,0,28.9,30Zm13-7.83H25.68a3.29,3.29,0,0,1,0-6.58h16.1A3.18,3.18,0,0,0,45,12.42,3.11,3.11,0,0,0,44.6,11a5.92,5.92,0,0,1-2.74,11.2Z"/></g><g id="LABELS"><text class="cls-2" transform="translate(0.08 54.84)"><tspan class="cls-3">t</tspan><tspan x="1.9" y="0">oothbrush-</tspan><tspan class="cls-3" x="30.77" y="0">t</tspan><tspan x="32.67" y="0">oothpaste</tspan></text></g></svg>
